src/assets/icons/shapes,fancy,filled-hexagon.svg

<svg width="48" height="48" viewBox="0 0 48 48" fill="none" xmlns="http://www.w3.org/2000/svg">
<path d="M22 5.1547C22.9761 4.59117 23.4641 4.3094 24 4.3094C24.5359 4.3094 25.0239 4.59117 26 5.1547L39.3205 12.8453C40.2966 13.4088 40.7846 13.6906 41.0526 14.1547C41.3205 14.6188 41.3205 15.1823 41.3205 16.3094V31.6906C41.3205 32.8177 41.3205 33.3812 41.0526 33.8453C40.7846 34.3094 40.2966 34.5912 39.3205 35.1547L26 42.8453C25.0239 43.4088 24.5359 43.6906 24 43.6906C23.4641 43.6906 22.9761 43.4088 22 42.8453L8.67949 35.1547C7.70342 34.5912 7.21539 34.3094 6.94744 33.8453C6.67949 33.3812 6.67949 32.8177 6.67949 31.6906V16.3094C6.67949 15.1823 6.67949 14.6188 6.94744 14.1547C7.21539 13.6906 7.70342 13.4088 8.67949 12.8453L22 5.1547Z" fill="black"/>
</svg>

<svg xmlns="http://www.w3.org/2000/svg" width="48" height="48" fill="none" viewBox="0 0 48 48">
  <path fill="#000" d="M22 5.155c.976-.564 1.464-.846 2-.846s1.024.282 2 .846l13.32 7.69c.977.564 1.465.846 1.733 1.31.268.464.268 1.027.268 2.154v15.382c0 1.127 0 1.69-.268 2.154-.268.464-.756.746-1.732 1.31L26 42.845c-.976.564-1.464.846-2 .846s-1.024-.282-2-.846l-13.32-7.69c-.977-.564-1.465-.846-1.733-1.31-.268-.464-.268-1.027-.268-2.154V16.309c0-1.127 0-1.69.268-2.154.268-.464.756-.746 1.732-1.31L22 5.155z"/>
</svg>
